icons/desktop/16/shield-slash-duotone-16.svg

<svg width="16" height="16" viewBox="0 0 16 16" fill="none" xmlns="http://www.w3.org/2000/svg">
<path d="M4.73749 4.17252C4.28058 4.40147 3.81593 4.62495 3.34002 4.82291C2.81602 5.04091 2.51427 5.61986 2.62127 6.19986L3.06659 8.62369C3.24155 9.57649 3.55072 10.3935 3.98358 11.0504C4.86758 12.3884 6.07034 13.5529 7.36834 14.3249C7.75719 14.5556 8.23459 14.5594 8.61444 14.3336C9.84341 13.6057 10.9749 12.5239 11.8439 11.2799L12.9162 12.3503C11.9462 13.6761 10.7179 14.8317 9.38104 15.6237C8.95808 15.8747 8.48201 15.9996 8.00506 15.9997C7.52106 15.9997 7.03572 15.8709 6.60272 15.6129C5.11375 14.7279 3.73858 13.3996 2.7326 11.8756C2.18775 11.0498 1.80397 10.0469 1.59198 8.89517L1.14569 6.47037C0.911959 5.20159 1.5931 3.92513 2.76385 3.43814C3.05178 3.31817 3.32763 3.17656 3.60956 3.04459L4.73749 4.17252Z" fill="context-fill"/>
<path d="M6.43084 1.47427C7.38584 0.839274 8.60906 0.842969 9.54706 1.48697C10.115 1.87595 10.7003 2.23632 11.2873 2.5563C11.9261 2.90519 12.578 3.21802 13.2248 3.48795C14.4038 3.97895 15.0877 5.2532 14.8527 6.5192L14.4094 8.90396C14.2454 9.78988 13.9774 10.5849 13.6135 11.2819L12.4826 10.152C12.6766 9.69201 12.8318 9.18755 12.9348 8.62955L13.3791 6.2438C13.4861 5.66981 13.1796 5.09273 12.6496 4.87173C11.9528 4.58282 11.2533 4.24559 10.5695 3.87173C9.93867 3.52882 9.30926 3.14218 8.6994 2.7233C8.48453 2.57539 8.23538 2.50073 7.98553 2.50064C7.73556 2.50064 7.48484 2.57438 7.26385 2.72134C6.81985 3.01734 6.35976 3.29519 5.89276 3.56119L4.78924 2.4567C5.35005 2.1508 5.90301 1.82714 6.43084 1.47427Z" fill="context-fill"/>
<path d="M0.71967 1.21967C1.01256 0.926777 1.48732 0.926777 1.78022 1.21967L15.2802 14.7197C15.5731 15.0126 15.5731 15.4873 15.2802 15.7802C14.9873 16.0731 14.5126 16.0731 14.2197 15.7802L0.71967 2.28022C0.426777 1.98732 0.426777 1.51256 0.71967 1.21967Z" fill="context-stroke"/>
</svg>

<!-- This Source Code Form is subject to the terms of the Mozilla Public
   - License, v. 2.0. If a copy of the MPL was not distributed with this
   - file, You can obtain one at http://mozilla.org/MPL/2.0/. -->
<svg xmlns="http://www.w3.org/2000/svg" width="16" height="16" fill-opacity="context-fill-opacity" viewBox="0 0 16 16">
    <path fill="context-fill" d="M4.737 4.173c-.456.228-.921.452-1.397.65-.524.218-.826.797-.719 1.377l.446 2.424c.175.952.484 1.77.917 2.426.884 1.338 2.086 2.503 3.384 3.275.39.23.867.234 1.246.009 1.23-.728 2.36-1.81 3.23-3.054l1.072 1.07c-.97 1.326-2.198 2.482-3.535 3.274A2.7 2.7 0 0 1 8.005 16c-.484 0-.97-.13-1.402-.387-1.49-.885-2.864-2.213-3.87-3.737-.545-.826-.929-1.83-1.141-2.98L1.146 6.47c-.234-1.268.447-2.545 1.618-3.032.288-.12.564-.261.846-.393zM6.43 1.474a2.77 2.77 0 0 1 3.117.013 20.2 20.2 0 0 0 3.678 2.001 2.75 2.75 0 0 1 1.628 3.031l-.444 2.385a8.4 8.4 0 0 1-.796 2.378l-1.13-1.13c.194-.46.349-.964.452-1.522l.444-2.386a1.24 1.24 0 0 0-.73-1.372 22 22 0 0 1-2.08-1c-.63-.343-1.26-.73-1.87-1.149a1.26 1.26 0 0 0-.713-.222c-.25 0-.501.073-.722.22-.444.296-.904.574-1.371.84L4.789 2.457c.561-.306 1.114-.63 1.642-.983" />
    <path fill="context-stroke" d="M.72 1.22a.75.75 0 0 1 1.06 0l13.5 13.5a.75.75 0 1 1-1.06 1.06L.72 2.28a.75.75 0 0 1 0-1.06" />
</svg>
